X:41
T:Jack Graces Front
M:6/8
L:1/8
N:The ‘G' note in the seventh measure of the 1st part may be played sharp.
B:Thompson's Compleat Collection of 200 Favourite Country Dances, vol. 2 (London, 1765)
Z:Transcribed and edited by Flynn Titford-Mock, 2007
Z:abc's:AK/Fiddler's Companion
K:D
d2f afd | c2d ecA | Bcd AGF | EFG FED | d2f afd | c2d ecA | Bdc BAG | A3 A,3 :|
|: A2A AGF | Bcd AFD | EFG ABc | def ecA | Bcd efg | fed cBA | Bcd egf | edc d3 :|

